neru-light-classic/22x22/actions/appointment-new-symbolic.svg

<svg xmlns="http://www.w3.org/2000/svg" width="22" height="22" version="1.1" id="svg7"><defs id="defs3"><style type="text/css" id="current-color-scheme"></style></defs><path transform="translate(3 3)" d="M2 1C1 1 1 2 1 2v12c0 1 1 1 1 1h7v-2H3V6h10v3h2V2c0-1-1-1-1-1H2zm10 9v2h-2v2h2v2h2v-2h2v-2h-2v-2h-2z" id="path5" fill="currentColor" opacity="1" color="#1e333d"/></svg>

<?xml version="1.0" encoding="UTF-8" standalone="no"?>
<svg
   xmlns:dc="http://purl.org/dc/elements/1.1/"
   xmlns:cc="http://creativecommons.org/ns#"
   xmlns:rdf="http://www.w3.org/1999/02/22-rdf-syntax-ns#"
   xmlns:svg="http://www.w3.org/2000/svg"
   xmlns="http://www.w3.org/2000/svg"
   xmlns:sodipodi="http://sodipodi.sourceforge.net/DTD/sodipodi-0.dtd"
   xmlns:inkscape="http://www.inkscape.org/namespaces/inkscape"
   width="22"
   height="22"
   viewBox="0 0 22 22"
   version="1.1"
   id="svg7"
   sodipodi:docname="appointment-new-symbolic.svg"
   inkscape:version="0.92.1 r">
  <metadata
     id="metadata11">
    <rdf:RDF>
      <cc:Work
         rdf:about="">
        <dc:format>image/svg+xml</dc:format>
        <dc:type
           rdf:resource="http://purl.org/dc/dcmitype/StillImage" />
        <dc:title></dc:title>
      </cc:Work>
    </rdf:RDF>
  </metadata>
  <sodipodi:namedview
     pagecolor="#ffffff"
     bordercolor="#666666"
     borderopacity="1"
     objecttolerance="10"
     gridtolerance="10"
     guidetolerance="10"
     inkscape:pageopacity="0"
     inkscape:pageshadow="2"
     inkscape:window-width="769"
     inkscape:window-height="480"
     id="namedview9"
     showgrid="false"
     inkscape:zoom="10.727273"
     inkscape:cx="11"
     inkscape:cy="11"
     inkscape:window-x="0"
     inkscape:window-y="0"
     inkscape:window-maximized="0"
     inkscape:current-layer="svg7" />
  <defs
     id="defs3">
    <style
       type="text/css"
       id="current-color-scheme">
   .ColorScheme-Text { color:#1e333d; } .ColorScheme-Highlight { color:#3fb7ff; }
  </style>
  </defs>
  <path
     style="fill:currentColor;opacity:1"
     class="ColorScheme-Text"
     transform="translate(3 3)"
     d="M 2 1 C 1 1 1 2 1 2 L 1 14 C 1 15 2 15 2 15 L 9 15 L 9 13 L 3 13 L 3 6 L 13 6 L 13 9 L 15 9 L 15 2 C 15 1 14 1 14 1 L 2 1 z M 12 10 L 12 12 L 10 12 L 10 14 L 12 14 L 12 16 L 14 16 L 14 14 L 16 14 L 16 12 L 14 12 L 14 10 L 12 10 z"
     id="path5" />
</svg>
